X: 072
T: Miss Jess Stewarts Reel
R: reel
M: C|
L: 1/8
Z: 2012 John Chambers <jc:trillian.mit.edu>
B: J. Anderson "Budget of Strathspeys, Reels and Country Dances" (Early 1800s) p.7 #2
F: http://imslp.org/wiki/Anderson%27s_Budget_of_Strathspeys,_Reels_and_Country_Dances_(Various)
K: Am
G |\
EAAB (c/d/e) (dc) | BGdG eGdG | cBAB cdea | gedB A/A/A A :|
e |\
aeab abc'a | (ge).d.c (Bd).G.d | aeab ac'ba | gedB A/A/A (Ae) |
(ae).a.b (ab).c'.a | gedc Bd Gd | ceAB cdea | gedB A/A/A A |]

%%sep 2 1 500
%%sep 1 1 500

